X:5
T: Az erdő szélibe
O: Bogdánfalva (Bákó), 1929
Q: Andante 1/4=138
M:4/4
L:1/4
K:F
D2 (Ac) | B A G F | 
G A B (G/B/) | A2 D2 |
C2 (FA) | GGDC | 
FAGG | D2 D2 | 

